; generated by Slic3r 1.3.0-dev on 2017-10-30 at 12:43:33

; external perimeters extrusion width = 0.40mm (2.52mm^3/s)
; perimeters extrusion width = 0.48mm (3.77mm^3/s)
; infill extrusion width = 0.48mm (10.05mm^3/s)
; solid infill extrusion width = 0.48mm (7.54mm^3/s)
; top infill extrusion width = 0.48mm (5.03mm^3/s)

M107
M190 S75 ; set bed temperature and wait for it to be reached
M104 S195 ; set temperature
G28 ; home all axes
;G1 Z5 F5000 ; lift nozzle

; Filament gcode

M109 S195 ; set temperature and wait for it to be reached
G21 ; set units to millimeters
G90 ; use absolute coordinates
M82 ; use absolute distances for extrusion
G92 E0
G1 Z0.350 F9000.000
G1 E-2.00000 F2400.00000
G92 E0
G1 X95.352 Y108.655 F9000.000
G1 E2.00000 F2400.00000
M201 X900 Y900
M204 P900 T900
G1 F2400
G1 X97.778 Y106.765 E2.11749
G1 X100.609 Y105.562 E2.23498
G1 X103.800 Y105.125 E2.35802
G1 X141.200 Y105.125 E3.78667
G1 X144.250 Y105.524 E3.90415
G1 X147.095 Y106.692 E4.02164
G1 X149.545 Y108.552 E4.13913
G1 X151.435 Y110.978 E4.25662
G1 X152.638 Y113.809 E4.37411
G1 X153.075 Y117.000 E4.49715
G1 X153.075 Y198.000 E7.59128
G1 X152.676 Y201.050 E7.70877
G1 X151.508 Y203.895 E7.82626
G1 X149.648 Y206.345 E7.94374
G1 X147.222 Y208.235 E8.06123
G1 X144.391 Y209.438 E8.17872
G1 X141.200 Y209.875 E8.30176
G1 X103.800 Y209.875 E9.73041
G1 X100.750 Y209.476 E9.84790
G1 X97.905 Y208.308 E9.96539
G1 X95.455 Y206.448 E10.08287
G1 X93.565 Y204.022 E10.20036
G1 X92.362 Y201.191 E10.31785
G1 X91.925 Y198.000 E10.44089
G1 X91.925 Y117.000 E13.53502
G1 X92.324 Y113.950 E13.65251
G1 X93.492 Y111.105 E13.77000
G1 X95.315 Y108.703 E13.88520
G1 X95.967 Y108.925 F9000.000
G1 F2400
G1 X98.374 Y107.145 E13.99954
G1 X101.165 Y106.063 E14.11388
G1 X103.800 Y105.750 E14.21526
G1 X141.200 Y105.750 E15.64390
G1 X144.167 Y106.148 E15.75825
G1 X146.923 Y107.315 E15.87259
G1 X149.275 Y109.167 E15.98693
G1 X151.055 Y111.574 E16.10127
G1 X152.137 Y114.365 E16.21561
G1 X152.450 Y117.000 E16.31699
G1 X152.450 Y198.000 E19.41112
G1 X152.052 Y200.967 E19.52546
G1 X150.885 Y203.723 E19.63980
G1 X149.033 Y206.075 E19.75414
G1 X146.626 Y207.855 E19.86849
G1 X143.835 Y208.937 E19.98283
G1 X141.200 Y209.250 E20.08421
G1 X103.800 Y209.250 E21.51285
G1 X100.833 Y208.852 E21.62720
G1 X98.077 Y207.685 E21.74154
G1 X95.725 Y205.833 E21.85588
G1 X93.945 Y203.426 E21.97022
G1 X92.863 Y200.635 E22.08456
G1 X92.550 Y198.000 E22.18594
G1 X92.550 Y117.000 E25.28007
G1 X92.948 Y114.033 E25.39441
G1 X94.115 Y111.277 E25.50875
G1 X95.930 Y108.972 E25.62080
G1 X96.581 Y109.204 F9000.000
G1 F2400
G1 X98.966 Y107.538 E25.73191
G1 X101.713 Y106.582 E25.84301
G1 X103.800 Y106.375 E25.92313
G1 X141.200 Y106.375 E27.35178
G1 X144.081 Y106.773 E27.46289
G1 X146.747 Y107.938 E27.57399
G1 X148.996 Y109.781 E27.68510
G1 X150.662 Y112.166 E27.79620
G1 X151.618 Y114.913 E27.90731
G1 X151.825 Y117.000 E27.98743
G1 X151.825 Y198.000 E31.08156
G1 X151.427 Y200.881 E31.19266
G1 X150.262 Y203.547 E31.30377
G1 X148.419 Y205.796 E31.41487
G1 X146.034 Y207.462 E31.52598
G1 X143.287 Y208.418 E31.63709
G1 X141.200 Y208.625 E31.71720
G1 X103.800 Y208.625 E33.14585
G1 X100.919 Y208.227 E33.25696
G1 X98.253 Y207.062 E33.36806
G1 X96.004 Y205.219 E33.47917
G1 X94.338 Y202.834 E33.59027
G1 X93.382 Y200.087 E33.70138
G1 X93.175 Y198.000 E33.78150
G1 X93.175 Y117.000 E36.87563
G1 X93.573 Y114.119 E36.98673
G1 X94.738 Y111.453 E37.09784
G1 X96.543 Y109.250 E37.20665
G1 E35.20665 F2400.00000
G92 E0
G1 X101.163 Y113.785 F9000.000
G1 E2.00000 F2400.00000
G1 F2400
G1 X102.086 Y112.862 E2.04988
G1 X142.914 Y112.862 E3.60974
G1 X145.338 Y115.286 E3.74070
G1 X145.338 Y199.714 E6.96633
G1 X142.914 Y202.138 E7.09729
G1 X102.086 Y202.138 E8.65715
G1 X99.662 Y199.714 E8.78811
G1 X99.662 Y115.286 E12.01375
G1 X101.121 Y113.828 E12.09254
G1 X101.605 Y114.227 F9000.000
G1 F2400
G1 X102.345 Y113.487 E12.13252
G1 X142.655 Y113.487 E13.67260
G1 X144.713 Y115.545 E13.78378
G1 X144.713 Y199.455 E16.98964
G1 X142.655 Y201.513 E17.10081
G1 X102.345 Y201.513 E18.64089
G1 X100.287 Y199.455 E18.75207
G1 X100.287 Y115.545 E21.95792
G1 X101.563 Y114.270 E22.02682
G1 X102.047 Y114.669 F9000.000
G1 F2400
G1 X102.604 Y114.112 E22.05692
G1 X142.396 Y114.112 E23.57722
G1 X144.088 Y115.804 E23.66861
G1 X144.088 Y199.196 E26.85469
G1 X142.396 Y200.888 E26.94608
G1 X102.604 Y200.888 E28.46638
G1 X100.912 Y199.196 E28.55777
G1 X100.912 Y115.804 E31.74385
G1 X102.004 Y114.712 E31.80285
G1 X102.489 Y115.111 F9000.000
G1 F2400
G1 X102.863 Y114.737 E31.82306
G1 X142.137 Y114.737 E33.32357
G1 X143.463 Y116.063 E33.39519
G1 X143.463 Y198.937 E36.56148
G1 X142.137 Y200.263 E36.63309
G1 X102.863 Y200.263 E38.13361
G1 X101.537 Y198.937 E38.20522
G1 X101.537 Y116.063 E41.37151
G1 X102.446 Y115.154 E41.42063
G1 X102.931 Y115.553 F9000.000
G1 F2400
G1 X103.122 Y115.362 E41.43094
G1 X141.878 Y115.362 E42.91168
G1 X142.838 Y116.322 E42.96351
G1 X142.838 Y198.678 E46.11002
G1 X141.878 Y199.638 E46.16185
G1 X103.122 Y199.638 E47.64259
G1 X102.162 Y198.678 E47.69442
G1 X102.162 Y116.322 E50.84093
G1 X102.888 Y115.596 E50.88015
G1 X103.373 Y115.995 F9000.000
G1 F2400
G1 X141.619 Y115.987 E52.34140
G1 X142.213 Y116.581 E52.37345
G1 X142.213 Y198.419 E55.50018
G1 X141.619 Y199.013 E55.53223
G1 X103.381 Y199.013 E56.99318
G1 X102.787 Y198.419 E57.02523
G1 X102.787 Y116.581 E60.15196
G1 X103.330 Y116.038 E60.18130
G1 X103.639 Y116.612 F9000.000
G1 F2400
G1 X141.361 Y116.612 E61.62247
G1 X141.588 Y116.839 E61.63474
G1 X141.588 Y198.161 E64.74168
G1 X141.361 Y198.388 E64.75395
G1 X103.639 Y198.388 E66.19512
G1 X103.412 Y198.161 E66.20739
G1 X103.412 Y116.839 E69.31434
G1 X103.597 Y116.655 E69.32431
G1 E67.32431 F2400.00000
G92 E0
G1 X140.850 Y197.650 F9000.000
G1 E2.00000 F2400.00000
G1 F1500
G1 X104.150 Y197.650 E3.40191
G1 X104.150 Y117.350 E6.46930
G1 X140.850 Y117.350 E7.87121
G1 X140.850 Y197.590 E10.93631
G1 X140.479 Y197.501 F9000.000
G1 X140.225 Y197.025 F9000.000
G1 F1800
G1 X104.775 Y197.025 E12.29048
G1 X104.775 Y117.975 E15.31013
G1 X140.225 Y117.975 E16.66430
G1 X140.225 Y196.965 E19.68166
G1 E17.68166 F2400.00000
G92 E0
G1 X128.695 Y171.128 F9000.000
G1 E2.00000 F2400.00000
G1 F1500
G1 X127.151 Y171.815 E2.06457
G1 X124.073 Y172.469 E2.18477
G1 X120.927 Y172.469 E2.30497
G1 X117.849 Y171.815 E2.42517
G1 X114.974 Y170.535 E2.54537
G1 X112.428 Y168.686 E2.66557
G1 X110.323 Y166.347 E2.78577
G1 X108.749 Y163.622 E2.90598
G1 X107.777 Y160.629 E3.02618
G1 X107.448 Y157.500 E3.14638
G1 X107.777 Y154.371 E3.26658
G1 X108.749 Y151.378 E3.38678
G1 X110.323 Y148.653 E3.50699
G1 X112.428 Y146.314 E3.62719
G1 X114.974 Y144.465 E3.74739
G1 X117.849 Y143.185 E3.86759
G1 X120.927 Y142.531 E3.98779
G1 X124.073 Y142.531 E4.10799
G1 X127.151 Y143.185 E4.22820
G1 X130.026 Y144.465 E4.34840
G1 X132.572 Y146.314 E4.46860
G1 X134.677 Y148.653 E4.58880
G1 X136.251 Y151.378 E4.70900
G1 X137.223 Y154.371 E4.82920
G1 X137.552 Y157.500 E4.94940
G1 X137.223 Y160.629 E5.06961
G1 X136.251 Y163.622 E5.18981
G1 X134.677 Y166.347 E5.31001
G1 X132.572 Y168.686 E5.43021
G1 X130.026 Y170.535 E5.55041
G1 X128.750 Y171.103 E5.60376
G1 X128.673 Y171.527 F9000.000
G1 X128.950 Y171.699 F9000.000
G1 F1800
G1 X127.345 Y172.413 E5.67083
G1 X124.139 Y173.094 E5.79605
G1 X120.861 Y173.094 E5.92127
G1 X117.655 Y172.413 E6.04649
G1 X114.660 Y171.080 E6.17171
G1 X112.008 Y169.153 E6.29693
G1 X109.814 Y166.717 E6.42215
G1 X108.175 Y163.878 E6.54736
G1 X107.162 Y160.760 E6.67259
G1 X106.820 Y157.500 E6.79780
G1 X107.162 Y154.240 E6.92302
G1 X108.175 Y151.122 E7.04824
G1 X109.814 Y148.283 E7.17346
G1 X112.008 Y145.847 E7.29868
G1 X114.660 Y143.920 E7.42390
G1 X117.655 Y142.587 E7.54912
G1 X120.861 Y141.906 E7.67434
G1 X124.139 Y141.906 E7.79956
G1 X127.345 Y142.587 E7.92478
G1 X130.340 Y143.920 E8.05000
G1 X132.992 Y145.847 E8.17522
G1 X135.186 Y148.283 E8.30044
G1 X136.825 Y151.122 E8.42565
G1 X137.838 Y154.240 E8.55088
G1 X138.180 Y157.500 E8.67609
G1 X137.838 Y160.760 E8.80131
G1 X136.825 Y163.878 E8.92653
G1 X135.186 Y166.717 E9.05175
G1 X132.992 Y169.153 E9.17697
G1 X130.340 Y171.080 E9.30219
G1 X129.004 Y171.674 E9.35804
G1 E7.35804 F2400.00000
G92 E0
G1 X136.212 Y166.010 F9000.000
G1 E2.00000 F2400.00000
G1 F3600
G1 X139.843 Y162.379 E2.19730
G1 X139.843 Y161.490 E2.23145
G1 X137.251 Y164.082 E2.37231
G1 X137.679 Y162.766 E2.42550
G1 X139.843 Y160.601 E2.54311
G1 X139.843 Y159.712 E2.57726
G1 X138.107 Y161.449 E2.67162
G1 X138.209 Y161.134 E2.68435
G1 X138.289 Y160.378 E2.71354
G1 X139.843 Y158.824 E2.79802
G1 X139.843 Y157.935 E2.83217
G1 X138.393 Y159.385 E2.91098
G1 X138.497 Y158.392 E2.94935
G1 X139.843 Y157.046 E3.02248
G1 X139.843 Y156.157 E3.05664
G1 X138.536 Y157.464 E3.12766
G1 X138.452 Y156.660 E3.15873
G1 X139.843 Y155.268 E3.23435
G1 X139.843 Y154.379 E3.26850
G1 X138.367 Y155.855 E3.34871
G1 X138.283 Y155.051 E3.37979
G1 X139.843 Y153.490 E3.46459
G1 X139.843 Y152.601 E3.49875
G1 X138.181 Y154.264 E3.58910
G1 X137.963 Y153.593 E3.61620
G1 X139.843 Y151.712 E3.71840
G1 X139.843 Y150.823 E3.75255
G1 X137.745 Y152.922 E3.86659
G1 X137.527 Y152.251 E3.89369
G1 X139.843 Y149.935 E4.01958
G1 X139.843 Y149.046 E4.05373
G1 X137.309 Y151.580 E4.19147
G1 X137.156 Y151.110 E4.21048
G1 X137.058 Y150.942 E4.21794
G1 X139.843 Y148.157 E4.36926
G1 X139.843 Y147.268 E4.40341
G1 X136.733 Y150.378 E4.57241
G1 X136.408 Y149.815 E4.59741
G1 X139.843 Y146.379 E4.78409
G1 X139.843 Y145.490 E4.81824
G1 X136.082 Y149.251 E5.02260
G1 X135.757 Y148.687 E5.04760
G1 X139.843 Y144.601 E5.26964
G1 X139.843 Y143.712 E5.30379
G1 X135.426 Y148.130 E5.54381
G1 X135.005 Y147.662 E5.56800
G1 X139.843 Y142.823 E5.83090
G1 X139.843 Y141.935 E5.86506
G1 X134.584 Y147.194 E6.15085
G1 X134.163 Y146.726 E6.17503
G1 X139.843 Y141.046 E6.48370
G1 X139.843 Y140.157 E6.51786
G1 X133.741 Y146.259 E6.84942
G1 X133.320 Y145.791 E6.87360
G1 X139.843 Y139.268 E7.22804
G1 X139.843 Y138.379 E7.26220
G1 X132.839 Y145.383 E7.64279
G1 X132.324 Y145.009 E7.66724
G1 X139.843 Y137.490 E8.07582
G1 X139.843 Y136.601 E8.10997
G1 X131.809 Y144.635 E8.54651
G1 X131.294 Y144.261 E8.57097
G1 X139.843 Y135.712 E9.03549
G1 X139.843 Y134.823 E9.06964
G1 X130.780 Y143.887 E9.56214
G1 X130.411 Y143.619 E9.57963
G1 X130.236 Y143.541 E9.58699
G1 X139.843 Y133.935 E10.10901
G1 X139.843 Y133.046 E10.14316
G1 X129.621 Y143.268 E10.69860
G1 X129.006 Y142.994 E10.72447
G1 X139.843 Y132.157 E11.31333
G1 X139.843 Y131.268 E11.34749
G1 X128.391 Y142.720 E11.96977
G1 X127.776 Y142.446 E11.99564
G1 X139.843 Y130.379 E12.65134
G1 X139.843 Y129.490 E12.68550
G1 X127.135 Y142.198 E13.37603
G1 X126.402 Y142.042 E13.40483
G1 X139.843 Y128.601 E14.13520
G1 X139.843 Y127.712 E14.16935
G1 X125.669 Y141.887 E14.93956
G1 X124.936 Y141.731 E14.96835
G1 X139.843 Y126.823 E15.77839
G1 X139.843 Y125.934 E15.81254
G1 X124.203 Y141.575 E16.66241
G1 X123.962 Y141.524 E16.67188
G1 X123.365 Y141.524 E16.69481
G1 X139.843 Y125.046 E17.59019
G1 X139.843 Y124.157 E17.62435
G1 X122.476 Y141.524 E18.56803
G1 X121.587 Y141.524 E18.60219
G1 X139.843 Y123.268 E19.59417
G1 X139.843 Y122.379 E19.62833
G1 X120.698 Y141.524 E20.66861
G1 X120.552 Y141.524 E20.67423
G1 X119.609 Y141.724 E20.71128
G1 X139.843 Y121.490 E21.81077
G1 X139.843 Y120.601 E21.84492
G1 X118.480 Y141.964 E23.00574
G1 X117.351 Y142.204 E23.05009
G1 X139.843 Y119.712 E24.27225
G1 X139.843 Y118.823 E24.30640
G1 X115.805 Y142.861 E25.61257
G1 X114.203 Y143.575 E25.67996
G1 X139.421 Y118.357 E27.05025
G1 X138.532 Y118.357 E27.08440
G1 X105.157 Y151.732 E28.89794
G1 X105.157 Y150.843 E28.93209
G1 X137.643 Y118.357 E30.69732
G1 X136.754 Y118.357 E30.73148
G1 X105.157 Y149.954 E32.44841
G1 X105.157 Y149.065 E32.48257
G1 X135.865 Y118.357 E34.15120
G1 X134.976 Y118.357 E34.18535
G1 X105.157 Y148.176 E35.80569
G1 X105.157 Y147.288 E35.83984
G1 X134.088 Y118.357 E37.41187
G1 X133.199 Y118.357 E37.44603
G1 X105.157 Y146.399 E38.96976
G1 X105.157 Y145.510 E39.00391
G1 X132.310 Y118.357 E40.47935
G1 X131.421 Y118.357 E40.51350
G1 X105.157 Y144.621 E41.94063
G1 X105.157 Y143.732 E41.97479
G1 X130.532 Y118.357 E43.35362
G1 X129.643 Y118.357 E43.38777
G1 X105.157 Y142.843 E44.71830
G1 X105.157 Y141.954 E44.75246
G1 X128.754 Y118.357 E46.03469
G1 X127.865 Y118.357 E46.06884
G1 X105.157 Y141.065 E47.30277
G1 X105.157 Y140.176 E47.33693
G1 X126.976 Y118.357 E48.52256
G1 X126.088 Y118.357 E48.55671
G1 X105.157 Y139.288 E49.69404
G1 X105.157 Y138.399 E49.72819
G1 X125.199 Y118.357 E50.81722
G1 X124.310 Y118.357 E50.85138
G1 X105.157 Y137.510 E51.89211
G1 X105.157 Y136.621 E51.92626
G1 X123.421 Y118.357 E52.91869
G1 X122.532 Y118.357 E52.95284
G1 X105.157 Y135.732 E53.89697
G1 X105.157 Y134.843 E53.93112
G1 X121.643 Y118.357 E54.82695
G1 X120.754 Y118.357 E54.86111
G1 X105.157 Y133.954 E55.70863
G1 X105.157 Y133.065 E55.74279
G1 X119.865 Y118.357 E56.54201
G1 X118.976 Y118.357 E56.57617
G1 X105.157 Y132.176 E57.32709
G1 X105.157 Y131.287 E57.36125
G1 X118.087 Y118.357 E58.06387
G1 X117.199 Y118.357 E58.09803
G1 X105.157 Y130.399 E58.75235
G1 X105.157 Y129.510 E58.78651
G1 X116.310 Y118.357 E59.39253
G1 X115.421 Y118.357 E59.42669
G1 X105.157 Y128.621 E59.98441
G1 X105.157 Y127.732 E60.01857
G1 X114.532 Y118.357 E60.52799
G1 X113.643 Y118.357 E60.56214
G1 X105.157 Y126.843 E61.02327
G1 X105.157 Y125.954 E61.05742
G1 X112.754 Y118.357 E61.47025
G1 X111.865 Y118.357 E61.50440
G1 X105.157 Y125.065 E61.86892
G1 X105.157 Y124.176 E61.90308
G1 X110.976 Y118.357 E62.21930
G1 X110.087 Y118.357 E62.25345
G1 X105.157 Y123.287 E62.52138
G1 X105.157 Y122.399 E62.55553
G1 X109.199 Y118.357 E62.77515
G1 X108.310 Y118.357 E62.80931
G1 X105.157 Y121.510 E62.98063
G1 X105.157 Y120.621 E63.01478
G1 X107.421 Y118.357 E63.13781
G1 X106.532 Y118.357 E63.17196
G1 X105.157 Y119.732 E63.24668
G1 X105.157 Y118.843 E63.28083
G1 X105.643 Y118.357 E63.30726
G1 E61.30726 F2400.00000
G92 E0
G1 X108.788 Y148.990 F9000.000
G1 E2.00000 F2400.00000
G1 F3600
G1 X105.157 Y152.621 E2.19729
G1 X105.157 Y153.510 E2.23145
G1 X107.749 Y150.918 E2.37230
G1 X107.321 Y152.234 E2.42550
G1 X105.157 Y154.399 E2.54310
G1 X105.157 Y155.288 E2.57725
G1 X106.893 Y153.551 E2.67161
G1 X106.791 Y153.866 E2.68433
G1 X106.711 Y154.622 E2.71353
G1 X105.157 Y156.177 E2.79800
G1 X105.157 Y157.065 E2.83216
G1 X106.607 Y155.615 E2.91096
G1 X106.503 Y156.608 E2.94934
G1 X105.157 Y157.954 E3.02247
G1 X105.157 Y158.843 E3.05662
G1 X106.464 Y157.536 E3.12764
G1 X106.548 Y158.340 E3.15872
G1 X105.157 Y159.732 E3.23434
G1 X105.157 Y160.621 E3.26849
G1 X106.633 Y159.145 E3.34870
G1 X106.717 Y159.949 E3.37977
G1 X105.157 Y161.510 E3.46458
G1 X105.157 Y162.399 E3.49873
G1 X106.819 Y160.736 E3.58908
G1 X107.037 Y161.407 E3.61618
G1 X105.157 Y163.288 E3.71838
G1 X105.157 Y164.177 E3.75253
G1 X107.255 Y162.078 E3.86658
G1 X107.473 Y162.749 E3.89368
G1 X105.157 Y165.065 E4.01957
G1 X105.157 Y165.954 E4.05372
G1 X107.691 Y163.420 E4.19145
G1 X107.844 Y163.890 E4.21047
G1 X107.942 Y164.058 E4.21793
G1 X105.157 Y166.843 E4.36925
G1 X105.157 Y167.732 E4.40340
G1 X108.267 Y164.622 E4.57240
G1 X108.592 Y165.186 E4.59740
G1 X105.157 Y168.621 E4.78408
G1 X105.157 Y169.510 E4.81823
G1 X108.918 Y165.749 E5.02259
G1 X109.243 Y166.313 E5.04759
G1 X105.157 Y170.399 E5.26963
G1 X105.157 Y171.288 E5.30378
G1 X109.574 Y166.870 E5.54381
G1 X109.995 Y167.338 E5.56799
G1 X105.157 Y172.177 E5.83090
G1 X105.157 Y173.065 E5.86505
G1 X110.416 Y167.806 E6.15084
G1 X110.837 Y168.274 E6.17502
G1 X105.157 Y173.954 E6.48370
G1 X105.157 Y174.843 E6.51785
G1 X111.259 Y168.741 E6.84941
G1 X111.680 Y169.209 E6.87360
G1 X105.157 Y175.732 E7.22804
G1 X105.157 Y176.621 E7.26220
G1 X112.161 Y169.617 E7.64279
G1 X112.676 Y169.991 E7.66724
G1 X105.157 Y177.510 E8.07582
G1 X105.157 Y178.399 E8.10997
G1 X113.191 Y170.365 E8.54652
G1 X113.706 Y170.739 E8.57097
G1 X105.157 Y179.288 E9.03549
G1 X105.157 Y180.177 E9.06965
G1 X114.220 Y171.113 E9.56214
G1 X114.589 Y171.381 E9.57964
G1 X114.764 Y171.459 E9.58700
G1 X105.157 Y181.066 E10.10902
G1 X105.157 Y181.954 E10.14317
G1 X115.379 Y171.732 E10.69861
G1 X115.994 Y172.006 E10.72448
